packages/icons/general/Link.svg

<svg width="25" height="24" viewBox="0 0 25 24" fill="none" xmlns="http://www.w3.org/2000/svg">
  <path fill-rule="evenodd" clip-rule="evenodd" d="M3.7002 4.19922C3.7002 3.64694 4.14791 3.19922 4.70019 3.19922H11.7576V4.79922H5.3002V19.1992H19.7002V12.4683H21.3002V19.7992C21.3002 20.3515 20.8525 20.7992 20.3002 20.7992H4.7002C4.14791 20.7992 3.7002 20.3515 3.7002 19.7992V4.19922ZM14.1643 3.99922C14.1643 3.55739 14.5225 3.19922 14.9643 3.19922H20.5002C20.942 3.19922 21.3002 3.55739 21.3002 3.99922V9.49258C21.3002 9.9344 20.942 10.2926 20.5002 10.2926C20.0584 10.2926 19.7002 9.9344 19.7002 9.49258V5.95409L9.83022 15.9936C9.52047 16.3087 9.01396 16.313 8.69889 16.0032C8.38382 15.6935 8.37951 15.187 8.68926 14.8719L18.5918 4.79922H14.9643C14.5225 4.79922 14.1643 4.44105 14.1643 3.99922Z" fill="#767F8D"/>
</svg>

<svg xmlns="http://www.w3.org/2000/svg" fill="none" viewBox="0 0 25 24">
    <path fill="#767F8D" fill-rule="evenodd" d="M3.7 4.2a1 1 0 0 1 1-1h7.058v1.6H5.3v14.4h14.4v-6.732h1.6V19.8a1 1 0 0 1-1 1H4.7a1 1 0 0 1-1-1V4.2ZM14.164 4a.8.8 0 0 1 .8-.8H20.5a.8.8 0 0 1 .8.8v5.493a.8.8 0 0 1-1.6 0V5.954l-9.87 10.04a.8.8 0 1 1-1.14-1.122l9.902-10.073h-3.628a.8.8 0 0 1-.8-.8Z" clip-rule="evenodd"/>
</svg>
